public/logo.svg

<svg width="393" height="84" viewBox="0 0 393 84" fill="none" xmlns="http://www.w3.org/2000/svg">
<g clip-path="url(#clip0_2754_122)">
<path fill-rule="evenodd" clip-rule="evenodd" d="M15.7803 26.5779C15.7803 28.3977 14.3119 29.8698 12.4966 29.8698C10.6813 29.8698 9.20898 28.3938 9.20898 26.5779V9.35771C9.21103 7.10435 10.1051 4.94393 11.695 3.35093C13.2848 1.75793 15.4403 0.862595 17.6882 0.861572H32.3032C34.481 0.863689 36.5761 1.69827 38.1615 3.19521L46.8758 11.6295C47.2243 11.9664 47.6904 12.1536 48.1746 12.1511H74.2827C76.643 12.1542 78.9058 13.0955 80.5748 14.7686C82.2438 16.4417 83.1828 18.71 83.1859 21.0761V26.5779C83.1859 27.4515 82.8397 28.2893 82.2235 28.907C81.6073 29.5247 80.7716 29.8717 79.9002 29.8717C79.0288 29.8717 78.193 29.5247 77.5769 28.907C76.9607 28.2893 76.6145 27.4515 76.6145 26.5779V21.08C76.6145 19.8127 75.5469 18.7425 74.2827 18.7425H48.1708C45.9662 18.7425 43.8849 17.8963 42.3047 16.3663L33.6328 7.97066C33.2898 7.64225 32.8042 7.44521 32.3032 7.44521H17.6882C16.636 7.44521 15.7803 8.30294 15.7803 9.35771V26.5779ZM33.8417 54.5364C32.6588 53.3507 31.0545 52.6845 29.3817 52.6845C27.7089 52.6845 26.1046 53.3507 24.9217 54.5364C23.7389 55.7222 23.0743 57.3304 23.0743 59.0074C23.0743 60.6843 23.7389 62.2925 24.9217 63.4783C26.1046 64.6641 27.7089 65.3302 29.3817 65.3302C31.0545 65.3302 32.6588 64.6641 33.8417 63.4783C35.0245 62.2925 35.689 60.6843 35.689 59.0074C35.689 57.3304 35.0245 55.7222 33.8417 54.5364ZM27.895 57.5171C28.2893 57.1218 28.8241 56.8998 29.3817 56.8998C29.9388 56.8998 30.4731 57.1255 30.867 57.5204C31.2609 57.9153 31.4822 58.4508 31.4822 59.0093C31.4822 59.5678 31.2609 60.1034 30.867 60.4982C30.4731 60.8931 29.9388 61.115 29.3817 61.115C28.8241 61.115 28.2893 60.8929 27.895 60.4977C27.5008 60.1024 27.2792 59.5663 27.2792 59.0074C27.2792 58.4484 27.5008 57.9123 27.895 57.5171ZM51.7096 54.5364C50.5267 53.3507 48.9224 52.6845 47.2496 52.6845C45.5768 52.6845 43.9725 53.3507 42.7896 54.5364C41.6068 55.7222 40.9423 57.3304 40.9423 59.0074C40.9423 60.6843 41.6068 62.2925 42.7896 63.4783C43.9725 64.6641 45.5768 65.3302 47.2496 65.3302C48.9224 65.3302 50.5267 64.6641 51.7096 63.4783C52.8924 62.2925 53.557 60.6843 53.557 59.0074C53.557 57.3304 52.8924 55.7222 51.7096 54.5364ZM45.763 57.5171C46.1572 57.1218 46.692 56.8998 47.2496 56.8998C47.8067 56.8998 48.341 57.1255 48.7349 57.5204C49.1288 57.9153 49.3501 58.4508 49.3501 59.0093C49.3501 59.5678 49.1288 60.1034 48.7349 60.4982C48.341 60.8931 47.8067 61.115 47.2496 61.115C46.692 61.115 46.1572 60.8929 45.763 60.4977C45.3687 60.1024 45.1472 59.5663 45.1472 59.0074C45.1472 58.4484 45.3687 57.9123 45.763 57.5171ZM69.5775 54.5364C68.3946 53.3507 66.7903 52.6845 65.1175 52.6845C63.4447 52.6845 61.8404 53.3507 60.6576 54.5364C59.4747 55.7222 58.8102 57.3304 58.8102 59.0074C58.8102 60.6843 59.4747 62.2925 60.6576 63.4783C61.8404 64.6641 63.4447 65.3302 65.1175 65.3302C66.7903 65.3302 68.3946 64.6641 69.5775 63.4783C70.7603 62.2925 71.4249 60.6843 71.4249 59.0074C71.4249 57.3304 70.7603 55.7222 69.5775 54.5364ZM63.6309 57.5171C64.0252 57.1218 64.5599 56.8998 65.1175 56.8998C65.6746 56.8998 66.2089 57.1255 66.6028 57.5204C66.9967 57.9153 67.218 58.4508 67.218 59.0093C67.218 59.5678 66.9967 60.1034 66.6028 60.4982C66.2089 60.8931 65.6746 61.115 65.1175 61.115C64.5599 61.115 64.0252 60.8929 63.6309 60.4977C63.2366 60.1024 63.0151 59.5663 63.0151 59.0074C63.0151 58.4484 63.2366 57.9123 63.6309 57.5171ZM12.1406 81.7037C10.3403 80.2296 9.10102 78.1793 8.631 75.8973L8.62714 75.8934L1.22329 45.9889C0.901093 44.5008 0.917417 42.9591 1.27105 41.4782C1.62469 39.9973 2.30654 38.6153 3.266 37.4348C5.18537 35.0741 8.02975 33.7218 11.0745 33.7218H82.87C84.3647 33.7191 85.8413 34.0507 87.1921 34.6923C88.5429 35.334 89.734 36.2695 90.6785 37.4309C91.6278 38.5908 92.3066 39.9486 92.6653 41.4052C93.0241 42.8618 93.0537 44.3803 92.752 45.8498L85.2865 76.0325C84.3692 80.5916 80.2106 83.9916 75.4314 83.9916H18.5169C16.1925 83.9856 13.9409 83.1777 12.1406 81.7037ZM9.56802 40.6442C9.09726 40.8681 8.68232 41.1946 8.3535 41.5998C8.02173 42.0047 7.78476 42.4829 7.66003 42.9917C7.5353 43.5005 7.52598 44.0309 7.63277 44.5439L15.0405 74.4484C15.3989 76.2179 16.8481 77.408 18.5169 77.408H75.4353C76.2455 77.4045 77.03 77.122 77.6573 76.6078C78.2846 76.0936 78.7166 75.379 78.8809 74.5836L86.3464 44.4009C86.5276 43.493 86.2655 42.4266 85.591 41.5998C84.9242 40.7768 83.9299 40.3055 82.87 40.3055H11.0745C10.5535 40.3045 10.0388 40.4202 9.56802 40.6442Z" fill="#262626"/>
</g>
<path d="M373.993 30.054H380.263L380.461 36.654C381.583 32.166 384.223 30.054 388.777 30.054H392.143V35.73H388.711C383.299 35.73 380.857 38.7 380.857 44.574V65.034H373.993V30.054Z" fill="#262626"/>
<path d="M336.425 47.544C336.425 36.39 342.959 29.262 352.991 29.262C361.175 29.262 368.303 34.674 368.699 47.148L368.765 49.524H343.619C344.147 56.058 347.447 59.886 352.991 59.886C356.489 59.886 359.591 57.906 361.043 54.54L368.237 55.068C366.191 61.668 360.053 65.826 352.991 65.826C342.959 65.826 336.425 58.698 336.425 47.544ZM343.751 44.244H361.505C360.581 37.512 356.951 35.202 352.991 35.202C347.843 35.202 344.609 38.568 343.751 44.244Z" fill="#262626"/>
<path d="M318.772 22.134H325.636V30.054H334.942V35.73H325.636V55.068C325.636 57.906 327.022 59.358 329.728 59.358H334.876V65.034H329.134C322.402 65.034 318.772 61.536 318.772 55.068V35.73H313.492V30.054H318.772V22.134Z" fill="#262626"/>
<path d="M292.259 30.054H298.529L298.727 36.654C299.849 32.166 302.489 30.054 307.043 30.054H310.409V35.73H306.977C301.565 35.73 299.123 38.7 299.123 44.574V65.034H292.259V30.054Z" fill="#262626"/>
<path d="M254.833 40.482C256.219 33.486 261.763 29.262 269.683 29.262C279.187 29.262 284.335 34.542 284.335 44.046V57.246C284.335 58.896 285.061 59.49 286.447 59.49H287.899V65.034H285.589C282.421 65.1 278.263 64.44 277.999 59.688C276.481 62.988 272.587 65.826 266.845 65.826C259.849 65.826 254.239 62.13 254.239 55.86C254.239 48.798 259.453 46.818 267.439 45.3L277.471 43.32C277.405 37.71 274.831 35.004 269.683 35.004C265.591 35.004 262.885 37.05 261.895 40.944L254.833 40.482ZM261.367 55.728C261.367 58.302 263.545 60.414 268.165 60.414C273.511 60.414 277.603 56.652 277.603 48.996V48.666L270.079 49.986C265.195 50.844 261.367 51.24 261.367 55.728Z" fill="#262626"/>
<path d="M235.362 22.134H242.226V30.054H251.532V35.73H242.226V55.068C242.226 57.906 243.612 59.358 246.318 59.358H251.466V65.034H245.724C238.992 65.034 235.362 61.536 235.362 55.068V35.73H230.082V30.054H235.362V22.134Z" fill="#262626"/>
<path d="M220.403 41.01C219.677 37.314 216.113 35.07 212.483 35.07C208.919 35.07 206.015 36.918 206.081 40.02C206.081 43.188 210.239 44.508 213.803 45.168C222.383 46.752 228.059 49.062 228.059 55.926C228.059 62.79 221.063 65.826 213.869 65.826C205.025 65.826 198.623 61.272 198.095 54.012L205.157 53.55C205.817 57.51 208.919 59.952 213.803 59.952C216.905 59.952 220.931 58.896 220.931 55.662C220.865 51.834 216.443 51.372 212.615 50.514C205.355 48.93 198.953 47.016 198.953 40.284C198.953 33.486 204.431 29.262 213.077 29.262C220.535 29.262 226.343 33.684 227.465 40.614L220.403 41.01Z" fill="#262626"/>
<path d="M179.262 30.054H185.532L185.73 36.654C186.852 32.166 189.492 30.054 194.046 30.054H197.412V35.73H193.98C188.568 35.73 186.126 38.7 186.126 44.574V65.034H179.262V30.054Z" fill="#262626"/>
<path d="M165.337 30.054H172.201V65.034H165.337V30.054ZM165.271 24.84V18.174H172.399V24.84H165.271Z" fill="#262626"/>
<path d="M137.982 18.174C152.634 18.174 160.884 26.622 160.884 41.67C160.884 56.652 152.832 65.034 138.378 65.034H123V18.174H137.982ZM129.996 58.566H137.982C148.476 58.566 153.624 53.022 153.624 41.67C153.624 30.186 148.476 24.642 137.982 24.642H129.996V58.566Z" fill="#262626"/>
<defs>
<clipPath id="clip0_2754_122">
<rect width="93" height="84" fill="white"/>
</clipPath>
</defs>
</svg>

<svg xmlns="http://www.w3.org/2000/svg" viewBox="0 0 393 84">
  <path fill="#262626" d="M15.78 26.578a3.286 3.286 0 1 1-6.571 0V9.358a8.514 8.514 0 0 1 2.486-6.007A8.472 8.472 0 0 1 17.688.86h14.615a8.545 8.545 0 0 1 5.858 2.334l8.715 8.434c.348.337.814.525 1.299.522h26.108a8.904 8.904 0 0 1 6.292 2.618 8.948 8.948 0 0 1 2.61 6.307v5.502c0 .873-.345 1.711-.962 2.329a3.282 3.282 0 0 1-4.646 0 3.298 3.298 0 0 1-.962-2.33V21.08c0-1.267-1.068-2.337-2.332-2.337H48.17a8.39 8.39 0 0 1-5.866-2.377l-8.672-8.395a1.942 1.942 0 0 0-1.33-.526H17.688a1.912 1.912 0 0 0-1.908 1.913v17.22Zm18.062 27.958a6.3 6.3 0 0 0-8.92 0 6.331 6.331 0 0 0 0 8.942 6.3 6.3 0 0 0 8.92 0 6.33 6.33 0 0 0 0-8.942Zm-5.947 2.981a2.1 2.1 0 0 1 1.487-.617 2.108 2.108 0 0 1 0 4.215 2.1 2.1 0 0 1-1.487-.617 2.11 2.11 0 0 1 0-2.98Zm23.815-2.98a6.3 6.3 0 0 0-8.92 0 6.331 6.331 0 0 0 0 8.941 6.3 6.3 0 0 0 8.92 0 6.331 6.331 0 0 0 0-8.942Zm-5.947 2.98a2.1 2.1 0 0 1 1.487-.617 2.108 2.108 0 0 1 0 4.215 2.1 2.1 0 0 1-1.487-.617 2.11 2.11 0 0 1 0-2.98Zm23.815-2.98a6.3 6.3 0 0 0-8.92 0 6.33 6.33 0 0 0 0 8.941 6.3 6.3 0 0 0 8.92 0 6.331 6.331 0 0 0 0-8.942Zm-5.947 2.98a2.1 2.1 0 0 1 1.487-.617 2.108 2.108 0 0 1 0 4.215 2.1 2.1 0 0 1-1.487-.617 2.11 2.11 0 0 1 0-2.98ZM12.14 81.704a10.15 10.15 0 0 1-3.51-5.807l-.004-.004L1.223 45.99a10.163 10.163 0 0 1 2.043-8.554 10.02 10.02 0 0 1 7.809-3.713H82.87a10.031 10.031 0 0 1 7.808 3.709 10.08 10.08 0 0 1 2.074 8.419l-7.465 30.182c-.918 4.56-5.076 7.96-9.856 7.96H18.517a10.106 10.106 0 0 1-6.376-2.288Zm-2.573-41.06a3.5 3.5 0 0 0-1.214.956 3.523 3.523 0 0 0-.721 2.944l7.407 29.904c.359 1.77 1.808 2.96 3.477 2.96h56.918a3.529 3.529 0 0 0 2.222-.8 3.544 3.544 0 0 0 1.224-2.024L86.346 44.4c.182-.908-.08-1.974-.755-2.801a3.49 3.49 0 0 0-2.721-1.294H11.074a3.49 3.49 0 0 0-1.506.338Z" clip-rule="evenodd"/>
  <path fill="#262626" d="M373.993 30.054h6.27l.198 6.6c1.122-4.488 3.762-6.6 8.316-6.6h3.366v5.676h-3.432c-5.412 0-7.854 2.97-7.854 8.844v20.46h-6.864v-34.98ZM336.425 47.544c0-11.154 6.534-18.282 16.566-18.282 8.184 0 15.312 5.412 15.708 17.886l.066 2.376h-25.146c.528 6.534 3.828 10.362 9.372 10.362 3.498 0 6.6-1.98 8.052-5.346l7.194.528c-2.046 6.6-8.184 10.758-15.246 10.758-10.032 0-16.566-7.128-16.566-18.282Zm7.326-3.3h17.754c-.924-6.732-4.554-9.042-8.514-9.042-5.148 0-8.382 3.366-9.24 9.042ZM318.772 22.134h6.864v7.92h9.306v5.676h-9.306v19.338c0 2.838 1.386 4.29 4.092 4.29h5.148v5.676h-5.742c-6.732 0-10.362-3.498-10.362-9.966V35.73h-5.28v-5.676h5.28v-7.92ZM292.259 30.054h6.27l.198 6.6c1.122-4.488 3.762-6.6 8.316-6.6h3.366v5.676h-3.432c-5.412 0-7.854 2.97-7.854 8.844v20.46h-6.864v-34.98ZM254.833 40.482c1.386-6.996 6.93-11.22 14.85-11.22 9.504 0 14.652 5.28 14.652 14.784v13.2c0 1.65.726 2.244 2.112 2.244h1.452v5.544h-2.31c-3.168.066-7.326-.594-7.59-5.346-1.518 3.3-5.412 6.138-11.154 6.138-6.996 0-12.606-3.696-12.606-9.966 0-7.062 5.214-9.042 13.2-10.56l10.032-1.98c-.066-5.61-2.64-8.316-7.788-8.316-4.092 0-6.798 2.046-7.788 5.94l-7.062-.462Zm6.534 15.246c0 2.574 2.178 4.686 6.798 4.686 5.346 0 9.438-3.762 9.438-11.418v-.33l-7.524 1.32c-4.884.858-8.712 1.254-8.712 5.742ZM235.362 22.134h6.864v7.92h9.306v5.676h-9.306v19.338c0 2.838 1.386 4.29 4.092 4.29h5.148v5.676h-5.742c-6.732 0-10.362-3.498-10.362-9.966V35.73h-5.28v-5.676h5.28v-7.92ZM220.403 41.01c-.726-3.696-4.29-5.94-7.92-5.94-3.564 0-6.468 1.848-6.402 4.95 0 3.168 4.158 4.488 7.722 5.148 8.58 1.584 14.256 3.894 14.256 10.758 0 6.864-6.996 9.9-14.19 9.9-8.844 0-15.246-4.554-15.774-11.814l7.062-.462c.66 3.96 3.762 6.402 8.646 6.402 3.102 0 7.128-1.056 7.128-4.29-.066-3.828-4.488-4.29-8.316-5.148-7.26-1.584-13.662-3.498-13.662-10.23 0-6.798 5.478-11.022 14.124-11.022 7.458 0 13.266 4.422 14.388 11.352l-7.062.396ZM179.262 30.054h6.27l.198 6.6c1.122-4.488 3.762-6.6 8.316-6.6h3.366v5.676h-3.432c-5.412 0-7.854 2.97-7.854 8.844v20.46h-6.864v-34.98ZM165.337 30.054h6.864v34.98h-6.864v-34.98Zm-.066-5.214v-6.666h7.128v6.666h-7.128ZM137.982 18.174c14.652 0 22.902 8.448 22.902 23.496 0 14.982-8.052 23.364-22.506 23.364H123v-46.86h14.982Zm-7.986 40.392h7.986c10.494 0 15.642-5.544 15.642-16.896 0-11.484-5.148-17.028-15.642-17.028h-7.986v33.924Z"/>
</svg>
